; G-Code generated by Simplify3D(R) Version 4.0.0
; Apr 11, 2022 at 8:02:49 PM
; Settings Summary
;   processName,Process1
;   applyToModels,Base_Stand_1
;   profileName,ms (modified)
;   profileVersion,2020-07-29 04:31:44
;   baseProfile,Default
;   printMaterial,PLA
;   printQuality,Medium
;   printExtruders,
;   extruderName,Extruder 1
;   extruderToolheadNumber,0
;   extruderDiameter,0.2
;   extruderAutoWidth,0
;   extruderWidth,0.4
;   extrusionMultiplier,1
;   extruderUseRetract,1
;   extruderRetractionDistance,1
;   extruderExtraRestartDistance,0
;   extruderRetractionZLift,0
;   extruderRetractionSpeed,4200
;   extruderUseCoasting,0
;   extruderCoastingDistance,0.2
;   extruderUseWipe,0
;   extruderWipeDistance,5
;   primaryExtruder,0
;   layerHeight,0.3
;   topSolidLayers,3
;   bottomSolidLayers,3
;   perimeterOutlines,3
;   printPerimetersInsideOut,1
;   startPointOption,2
;   startPointOriginX,0
;   startPointOriginY,0
;   sequentialIslands,1
;   spiralVaseMode,0
;   firstLayerHeightPercentage,120
;   firstLayerWidthPercentage,110
;   firstLayerUnderspeed,0.6
;   useRaft,0
;   raftExtruder,0
;   raftTopLayers,3
;   raftBaseLayers,2
;   raftOffset,3
;   raftSeparationDistance,0.14
;   raftTopInfill,100
;   aboveRaftSpeedMultiplier,0.3
;   useSkirt,1
;   skirtExtruder,0
;   skirtLayers,1
;   skirtOutlines,4
;   skirtOffset,4
;   usePrimePillar,0
;   primePillarExtruder,999
;   primePillarWidth,12
;   primePillarLocation,7
;   primePillarSpeedMultiplier,1
;   useOozeShield,0
;   oozeShieldExtruder,0
;   oozeShieldOffset,2
;   oozeShieldOutlines,2
;   oozeShieldSidewallShape,1
;   oozeShieldSidewallAngle,30
;   oozeShieldSpeedMultiplier,1
;   infillExtruder,0
;   internalInfillPattern,Fast Honeycomb
;   externalInfillPattern,Rectilinear
;   infillPercentage,30
;   outlineOverlapPercentage,60
;   infillExtrusionWidthPercentage,100
;   minInfillLength,0.4
;   infillLayerInterval,1
;   internalInfillAngles,0
;   overlapInternalInfillAngles,0
;   externalInfillAngles,45,-45
;   generateSupport,1
;   supportExtruder,0
;   supportInfillPercentage,40
;   supportExtraInflation,1
;   supportBaseLayers,1
;   denseSupportExtruder,0
;   denseSupportLayers,0
;   denseSupportInfillPercentage,10
;   supportLayerInterval,1
;   supportHorizontalPartOffset,0.3
;   supportUpperSeparationLayers,1
;   supportLowerSeparationLayers,1
;   supportType,0
;   supportGridSpacing,4
;   maxOverhangAngle,45
;   supportAngles,0
;   temperatureName,Extruder 1 Temperature,Heated Bed
;   temperatureNumber,0,0
;   temperatureSetpointCount,1,4
;   temperatureSetpointLayers,1,1,2,3,4
;   temperatureSetpointTemperatures,208,80,40,30,20
;   temperatureStabilizeAtStartup,1,1
;   temperatureHeatedBed,0,1
;   temperatureRelayBetweenLayers,0,0
;   temperatureRelayBetweenLoops,0,0
;   fanLayers,1,2
;   fanSpeeds,0,100
;   blipFanToFullPower,0
;   adjustSpeedForCooling,0
;   minSpeedLayerTime,15
;   minCoolingSpeedSlowdown,20
;   increaseFanForCooling,0
;   minFanLayerTime,45
;   maxCoolingFanSpeed,100
;   increaseFanForBridging,0
;   bridgingFanSpeed,100
;   use5D,1
;   relativeEdistances,0
;   allowEaxisZeroing,1
;   independentExtruderAxes,0
;   includeM10123,0
;   stickySupport,1
;   applyToolheadOffsets,0
;   gcodeXoffset,0
;   gcodeYoffset,0
;   gcodeZoffset,0
;   overrideMachineDefinition,1
;   machineTypeOverride,0
;   strokeXoverride,200
;   strokeYoverride,200
;   strokeZoverride,400
;   originOffsetXoverride,0
;   originOffsetYoverride,0
;   originOffsetZoverride,0
;   homeXdirOverride,-1
;   homeYdirOverride,-1
;   homeZdirOverride,-1
;   flipXoverride,1
;   flipYoverride,-1
;   flipZoverride,1
;   toolheadOffsets,0,0|0,0|0,0|0,0|0,0|0,0
;   overrideFirmwareConfiguration,1
;   firmwareTypeOverride,RepRap (Marlin/Repetier/Sprinter)
;   GPXconfigOverride,r2
;   baudRateOverride,115200
;   overridePrinterModels,0
;   printerModelsOverride
;   startingGcode,;Sliced at: {day} {date} {time},;Basic settings: Layer height: {layer_height} Walls: {wall_thickness} Fill: {fill_density},;Print time: {print_time},;Filament used: {filament_amount}m {filament_weight}g,;Filament cost: {filament_cost},;M190 S{print_bed_temperature} ;Uncomment to add your own bed temperature line,;M104 S{print_temperature} ;Uncomment to add your own temperature line,;M109 T1 S{print_temperature2} ;Uncomment to add your own temperature line,;M109 T0 S{print_temperature} ;Uncomment to add your own temperature line,G21        ;metric values,G90        ;absolute positioning,M82        ;set extruder to absolute mode,M107       ;start with the fan off,G28 X0 Y0  ;move X/Y to min endstops,G28 Z0     ;move Z to min endstops,G1 Z15.0 F{travel_speed} ;move the platform down 15mm,G92 E0                  ;zero the extruded length,G1 F200 E3              ;extrude 3mm of feed stock,G92 E0                  ;zero the extruded length again,G1 F{travel_speed},;Put printing message on LCD screen,M117 Printing...
;   layerChangeGcode,
;   retractionGcode,
;   toolChangeGcode,
;   endingGcode,;End GCode,M104 T0 S0                     ;extruder heater off,M104 T1 S0                     ;extruder heater off,M140 S0                     ;heated bed heater off (if you have it),G91                                    ;relative positioning,G1 E0 F300                            ;retract the filament a bit before lifting the nozzle, to release some of the pressure,G1 Z+0.5 E0 X-20 Y-20 F{travel_speed} ;move Z up a bit and retract filament even more,G28 X0 Y0                              ;move X/Y to min endstops, so the head is out of the way,M84                         ;steppers off,G90                         ;absolute positioning,;{profile_string}
;   exportFileFormat,gcode
;   celebration,0
;   celebrationSong,Random Song
;   postProcessing,
;   defaultSpeed,3200
;   outlineUnderspeed,0.6
;   solidInfillUnderspeed,0.7
;   supportUnderspeed,0.8
;   rapidXYspeed,4800
;   rapidZspeed,1000
;   minBridgingArea,50
;   bridgingExtraInflation,0
;   bridgingExtrusionMultiplier,1
;   bridgingSpeedMultiplier,1
;   useFixedBridgingAngle,0
;   fixedBridgingAngle,0
;   applyBridgingToPerimeters,0
;   filamentDiameters,1.75|1.75|1.75|1.75|1.75|1.75
;   filamentPricesPerKg,46|46|46|46|46|46
;   filamentDensities,1.25|1.25|1.25|1.25|1.25|1.25
;   useMinPrintHeight,0
;   minPrintHeight,0
;   useMaxPrintHeight,0
;   maxPrintHeight,0
;   useDiaphragm,0
;   diaphragmLayerInterval,20
;   robustSlicing,1
;   mergeAllIntoSolid,0
;   onlyRetractWhenCrossingOutline,1
;   retractBetweenLayers,1
;   useRetractionMinTravel,0
;   retractionMinTravel,3
;   retractWhileWiping,0
;   onlyWipeOutlines,1
;   avoidCrossingOutline,0
;   maxMovementDetourFactor,3
;   toolChangeRetractionDistance,12
;   toolChangeExtraRestartDistance,-0.5
;   toolChangeRetractionSpeed,600
;   externalThinWallType,0
;   internalThinWallType,2
;   thinWallAllowedOverlapPercentage,10
;   singleExtrusionMinLength,1
;   singleExtrusionMinPrintingWidthPercentage,50
;   singleExtrusionMaxPrintingWidthPercentage,200
;   singleExtrusionEndpointExtension,0.2
;   horizontalSizeCompensation,0
G90
M82
M106 S0
M140 S80
M190 S80
M104 S208 T0
M109 S208 T0
;Sliced at: {day} {date} {time}
;Basic settings: Layer height: {layer_height} Walls: {wall_thickness} Fill: {fill_density}
;Print time: {print_time}
;Filament used: {filament_amount}m {filament_weight}g
;Filament cost: {filament_cost}
;M190 S{print_bed_temperature} ;Uncomment to add your own bed temperature line
;M104 S{print_temperature} ;Uncomment to add your own temperature line
;M109 T1 S{print_temperature2} ;Uncomment to add your own temperature line
;M109 T0 S{print_temperature} ;Uncomment to add your own temperature line
G21        ;metric values
G90        ;absolute positioning
M82        ;set extruder to absolute mode
M107       ;start with the fan off
G28 X0 Y0  ;move X/Y to min endstops
G28 Z0     ;move Z to min endstops
G1 Z15.0 F{travel_speed} ;move the platform down 15mm
G92 E0                  ;zero the extruded length
G1 F200 E3              ;extrude 3mm of feed stock
G92 E0                  ;zero the extruded length again
G1 F{travel_speed}
;Put printing message on LCD screen
M117 Printing...
G92 E0
G1 E-1.0000 F4200
G1 Z0.360 F1000
; process Process1
; layer 1, Z = 0.360
T0
; tool H0.360 W0.440
; skirt
G1 X68.759 Y70.630 F4800
G1 E0.0000 F1260
G92 E0
G1 X71.016 Y68.547 E0.2022 F1920
G1 X71.044 Y68.522 E0.2047
G1 X71.236 Y68.362 E0.2212
G1 X71.266 Y68.339 E0.2236
G1 X73.731 Y66.508 E0.4259
G1 X73.761 Y66.486 E0.4283
G1 X73.970 Y66.348 E0.4448
G1 X74.002 Y66.328 E0.4473
G1 X76.647 Y64.769 E0.6495
G1 X76.680 Y64.751 E0.6520
G1 X76.902 Y64.636 E0.6685
G1 X76.936 Y64.619 E0.6709
G1 X79.721 Y63.356 E0.8724
G1 X79.752 Y63.342 E0.8746
G1 X79.962 Y63.259 E0.8894
G1 X79.993 Y63.247 E0.8916
G1 X82.217 Y62.486 E1.0465
G1 X82.233 Y62.481 E1.0475
G1 X82.337 Y62.448 E1.0547
G1 X82.352 Y62.443 E1.0558
G1 X83.097 Y62.226 E1.1068
G1 X83.121 Y62.220 E1.1085
G1 X83.281 Y62.179 E1.1194
G1 X83.305 Y62.173 E1.1210
G1 X86.266 Y61.533 E1.3205
G1 X86.302 Y61.526 E1.3229
G1 X86.549 Y61.486 E1.3394
G1 X86.586 Y61.481 E1.3419
G1 X89.609 Y61.158 E1.5421
G1 X89.637 Y61.156 E1.5439
G1 X89.824 Y61.143 E1.5563
G1 X89.852 Y61.142 E1.5581
G1 X91.419 Y61.100 E1.6613
G1 X91.437 Y61.100 E1.6625
G1 X91.563 Y61.100 E1.6708
G1 X91.581 Y61.100 E1.6720
G1 X93.148 Y61.142 E1.7752
G1 X93.176 Y61.143 E1.7771
G1 X93.363 Y61.156 E1.7894
G1 X93.391 Y61.158 E1.7913
G1 X96.414 Y61.481 E1.9915
G1 X96.451 Y61.486 E1.9939
G1 X96.698 Y61.526 E2.0104
G1 X96.734 Y61.533 E2.0129
G1 X99.736 Y62.182 E2.2151
G1 X99.772 Y62.191 E2.2176
G1 X100.014 Y62.257 E2.2340
G1 X100.049 Y62.268 E2.2365
G1 X102.965 Y63.232 E2.4387
G1 X103.000 Y63.245 E2.4412
G1 X103.233 Y63.336 E2.4577
G1 X103.268 Y63.350 E2.4601
G1 X106.064 Y64.619 E2.6624
G1 X106.098 Y64.636 E2.6648
G1 X106.320 Y64.751 E2.6813
G1 X106.353 Y64.769 E2.6838
G1 X108.998 Y66.328 E2.8860
G1 X109.030 Y66.348 E2.8885
G1 X109.239 Y66.486 E2.9050
G1 X109.269 Y66.508 E2.9074
G1 X111.734 Y68.339 E3.1097
G1 X111.764 Y68.362 E3.1121
G1 X111.956 Y68.522 E3.1286
G1 X111.984 Y68.547 E3.1311
G1 X114.241 Y70.630 E3.3333
G1 X114.268 Y70.656 E3.3358
G1 X114.442 Y70.835 E3.3522
G1 X114.468 Y70.863 E3.3547
G1 X116.490 Y73.174 E3.5569
G1 X116.514 Y73.203 E3.5594
G1 X116.668 Y73.399 E3.5759
G1 X116.691 Y73.429 E3.5783
G1 X118.456 Y75.942 E3.7806
G1 X118.476 Y75.973 E3.7830
G1 X118.609 Y76.186 E3.7995
G1 X118.628 Y76.218 E3.8020
G1 X120.116 Y78.904 E4.0042
G1 X120.133 Y78.937 E4.0067
G1 X120.243 Y79.162 E4.0232
G1 X120.258 Y79.196 E4.0256
G1 X121.452 Y82.026 E4.2279
G1 X121.466 Y82.061 E4.2303
G1 X121.551 Y82.296 E4.2468
G1 X121.562 Y82.331 E4.2493
G1 X122.449 Y85.272 E4.4515
G1 X122.459 Y85.308 E4.4540
G1 X122.518 Y85.551 E4.4705
G1 X122.526 Y85.587 E4.4729
G1 X123.095 Y88.605 E4.6752
G1 X123.101 Y88.642 E4.6776
G1 X123.134 Y88.890 E4.6941
G1 X123.138 Y88.927 E4.6965
G1 X123.383 Y91.988 E4.8988
G1 X123.385 Y92.026 E4.9012
G1 X123.392 Y92.276 E4.9177
G1 X123.392 Y92.313 E4.9202
G1 X123.310 Y95.383 E5.1224
G1 X123.308 Y95.420 E5.1249
G1 X123.288 Y95.670 E5.1414
G1 X123.284 Y95.707 E5.1438
G1 X122.877 Y98.751 E5.3461
G1 X122.871 Y98.788 E5.3485
G1 X122.824 Y99.034 E5.3650
G1 X122.817 Y99.070 E5.3675
G1 X122.088 Y102.053 E5.5697
G1 X122.078 Y102.089 E5.5722
G1 X122.006 Y102.329 E5.5887
G1 X121.994 Y102.364 E5.5911
G1 X120.952 Y105.253 E5.7934
G1 X120.938 Y105.288 E5.7958
G1 X120.841 Y105.519 E5.8123
G1 X120.826 Y105.553 E5.8148
G1 X119.483 Y108.315 E6.0170
G1 X119.466 Y108.348 E6.0195
G1 X119.344 Y108.567 E6.0359
G1 X119.325 Y108.599 E6.0384
G1 X117.696 Y111.202 E6.2406
G1 X117.676 Y111.233 E6.2431
G1 X117.532 Y111.438 E6.2596
G1 X117.510 Y111.468 E6.2620
G1 X115.613 Y113.884 E6.4643
G1 X115.589 Y113.912 E6.4667
G1 X115.425 Y114.101 E6.4832
G1 X115.399 Y114.128 E6.4857
G1 X113.257 Y116.328 E6.6879
G1 X113.230 Y116.354 E6.6904
G1 X113.046 Y116.524 E6.7069
G1 X113.018 Y116.549 E6.7093
G1 X110.654 Y118.509 E6.9116
G1 X110.625 Y118.532 E6.9140
G1 X110.424 Y118.681 E6.9305
G1 X110.393 Y118.703 E6.9330
G1 X107.834 Y120.400 E7.1352
G1 X107.802 Y120.420 E7.1377
G1 X107.587 Y120.547 E7.1541
G1 X107.554 Y120.565 E7.1566
G1 X104.829 Y121.981 E7.3588
G1 X104.795 Y121.998 E7.3613
G1 X104.567 Y122.101 E7.3778
G1 X104.533 Y122.115 E7.3802
G1 X101.673 Y123.234 E7.5825
G1 X101.638 Y123.246 E7.5849
G1 X101.400 Y123.325 E7.6014
G1 X101.365 Y123.336 E7.6039
G1 X98.402 Y124.144 E7.8061
G1 X98.365 Y124.153 E7.8086
G1 X98.121 Y124.206 E7.8251
G1 X98.084 Y124.213 E7.8275
G1 X95.052 Y124.701 E8.0298
G1 X95.015 Y124.706 E8.0322
G1 X94.766 Y124.733 E8.0487
G1 X94.729 Y124.736 E8.0512
G1 X91.662 Y124.899 E8.2534
G1 X91.625 Y124.900 E8.2559
G1 X91.375 Y124.900 E8.2723
G1 X91.338 Y124.899 E8.2748
G1 X88.271 Y124.736 E8.4771
G1 X88.234 Y124.733 E8.4795
G1 X87.985 Y124.706 E8.4960
G1 X87.948 Y124.701 E8.4984
G1 X84.916 Y124.213 E8.7007
G1 X84.879 Y124.206 E8.7031
G1 X84.635 Y124.153 E8.7196
G1 X84.598 Y124.144 E8.7221
G1 X81.635 Y123.336 E8.9243
G1 X81.600 Y123.325 E8.9268
G1 X81.362 Y123.246 E8.9433
G1 X81.327 Y123.234 E8.9457
G1 X78.467 Y122.115 E9.1480
G1 X78.432 Y122.101 E9.1504
G1 X78.205 Y121.998 E9.1669
G1 X78.171 Y121.981 E9.1694
G1 X75.446 Y120.565 E9.3716
G1 X75.413 Y120.547 E9.3741
G1 X75.198 Y120.420 E9.3906
G1 X75.166 Y120.400 E9.3930
G1 X72.607 Y118.703 E9.5953
G1 X72.576 Y118.681 E9.5977
G1 X72.375 Y118.532 E9.6142
G1 X72.346 Y118.509 E9.6166
G1 X69.982 Y116.549 E9.8189
G1 X69.954 Y116.524 E9.8213
G1 X69.770 Y116.354 E9.8378
G1 X69.743 Y116.328 E9.8403
G1 X67.601 Y114.128 E10.0425
G1 X67.575 Y114.101 E10.0450
G1 X67.411 Y113.912 E10.0615
G1 X67.387 Y113.884 E10.0639
G1 X65.490 Y111.468 E10.2662
G1 X65.468 Y111.438 E10.2686
G1 X65.324 Y111.233 E10.2851
G1 X65.304 Y111.202 E10.2876
G1 X63.675 Y108.599 E10.4898
G1 X63.656 Y108.567 E10.4923
G1 X63.534 Y108.348 E10.5088
G1 X63.517 Y108.315 E10.5112
G1 X62.174 Y105.553 E10.7135
G1 X62.159 Y105.519 E10.7159
G1 X62.062 Y105.288 E10.7324
G1 X62.048 Y105.253 E10.7349
G1 X61.006 Y102.364 E10.9371
G1 X60.994 Y102.329 E10.9396
G1 X60.922 Y102.089 E10.9560
G1 X60.912 Y102.053 E10.9585
G1 X60.183 Y99.070 E11.1607
G1 X60.176 Y99.034 E11.1632
G1 X60.129 Y98.788 E11.1797
G1 X60.123 Y98.751 E11.1821
G1 X59.716 Y95.707 E11.3844
G1 X59.712 Y95.670 E11.3868
G1 X59.692 Y95.420 E11.4033
G1 X59.690 Y95.383 E11.4058
G1 X59.608 Y92.313 E11.6080
G1 X59.608 Y92.276 E11.6105
G1 X59.615 Y92.026 E11.6270
G1 X59.617 Y91.988 E11.6294
G1 X59.862 Y88.927 E11.8317
G1 X59.866 Y88.890 E11.8341
G1 X59.899 Y88.642 E11.8506
G1 X59.905 Y88.605 E11.8531
G1 X60.474 Y85.587 E12.0553
G1 X60.482 Y85.551 E12.0578
G1 X60.541 Y85.308 E12.0742
G1 X60.551 Y85.272 E12.0767
G1 X61.437 Y82.331 E12.2789
G1 X61.449 Y82.296 E12.2814
G1 X61.534 Y82.061 E12.2979
G1 X61.548 Y82.026 E12.3003
G1 X62.742 Y79.196 E12.5026
G1 X62.757 Y79.163 E12.5050
G1 X62.867 Y78.937 E12.5215
G1 X62.884 Y78.904 E12.5240
G1 X64.372 Y76.218 E12.7262
G1 X64.391 Y76.186 E12.7287
G1 X64.524 Y75.973 E12.7452
G1 X64.544 Y75.942 E12.7476
G1 X66.309 Y73.429 E12.9499
G1 X66.332 Y73.399 E12.9523
G1 X66.486 Y73.203 E12.9688
G1 X66.510 Y73.174 E12.9713
G1 X68.532 Y70.863 E13.1735
G1 X68.558 Y70.835 E13.1760
G1 X68.732 Y70.656 E13.1924
G1 X68.759 Y70.630 E13.1949
G1 X69.034 Y70.920 F4800
G92 E0
G1 X71.283 Y68.844 E0.2015 F1920
G1 X71.303 Y68.827 E0.2033
G1 X71.488 Y68.674 E0.2191
G1 X71.508 Y68.657 E0.2208
G1 X73.965 Y66.832 E0.4224
G1 X73.987 Y66.817 E0.4241
G1 X74.187 Y66.684 E0.4399
G1 X74.209 Y66.670 E0.4417
G1 X76.846 Y65.117 E0.6432
G1 X76.869 Y65.104 E0.6450
G1 X77.082 Y64.993 E0.6608
G1 X77.106 Y64.981 E0.6625
G1 X79.882 Y63.722 E0.8633
G1 X79.904 Y63.712 E0.8649
G1 X80.105 Y63.633 E0.8791
G1 X80.127 Y63.624 E0.8807
G1 X82.345 Y62.865 E1.0350
G1 X82.356 Y62.861 E1.0358
G1 X82.455 Y62.830 E1.0427
G1 X82.466 Y62.826 E1.0434
G1 X83.205 Y62.611 E1.0941
G1 X83.222 Y62.606 E1.0953
G1 X83.376 Y62.567 E1.1057
G1 X83.393 Y62.563 E1.1069
G1 X86.345 Y61.925 E1.3058
G1 X86.371 Y61.920 E1.3075
G1 X86.608 Y61.882 E1.3233
G1 X86.634 Y61.878 E1.3250
G1 X89.647 Y61.556 E1.5246
