; G-Code generated by Simplify3D(R) Version 4.0.0
; Apr 11, 2022 at 11:22:13 PM
; Settings Summary
;   processName,Process1
;   applyToModels,Base_Stand_2
;   profileName,ms (modified)
;   profileVersion,2020-07-29 04:31:44
;   baseProfile,Default
;   printMaterial,PLA
;   printQuality,Medium
;   printExtruders,
;   extruderName,Extruder 1
;   extruderToolheadNumber,0
;   extruderDiameter,0.2
;   extruderAutoWidth,0
;   extruderWidth,0.4
;   extrusionMultiplier,1
;   extruderUseRetract,1
;   extruderRetractionDistance,1
;   extruderExtraRestartDistance,0
;   extruderRetractionZLift,0
;   extruderRetractionSpeed,4200
;   extruderUseCoasting,0
;   extruderCoastingDistance,0.2
;   extruderUseWipe,0
;   extruderWipeDistance,5
;   primaryExtruder,0
;   layerHeight,0.3
;   topSolidLayers,3
;   bottomSolidLayers,4
;   perimeterOutlines,5
;   printPerimetersInsideOut,1
;   startPointOption,2
;   startPointOriginX,0
;   startPointOriginY,0
;   sequentialIslands,1
;   spiralVaseMode,0
;   firstLayerHeightPercentage,120
;   firstLayerWidthPercentage,110
;   firstLayerUnderspeed,0.6
;   useRaft,0
;   raftExtruder,0
;   raftTopLayers,3
;   raftBaseLayers,2
;   raftOffset,3
;   raftSeparationDistance,0.14
;   raftTopInfill,100
;   aboveRaftSpeedMultiplier,0.3
;   useSkirt,1
;   skirtExtruder,0
;   skirtLayers,1
;   skirtOutlines,4
;   skirtOffset,4
;   usePrimePillar,0
;   primePillarExtruder,999
;   primePillarWidth,12
;   primePillarLocation,7
;   primePillarSpeedMultiplier,1
;   useOozeShield,0
;   oozeShieldExtruder,0
;   oozeShieldOffset,2
;   oozeShieldOutlines,2
;   oozeShieldSidewallShape,1
;   oozeShieldSidewallAngle,30
;   oozeShieldSpeedMultiplier,1
;   infillExtruder,0
;   internalInfillPattern,Fast Honeycomb
;   externalInfillPattern,Rectilinear
;   infillPercentage,20
;   outlineOverlapPercentage,60
;   infillExtrusionWidthPercentage,100
;   minInfillLength,0.4
;   infillLayerInterval,1
;   internalInfillAngles,0
;   overlapInternalInfillAngles,0
;   externalInfillAngles,45,-45
;   generateSupport,1
;   supportExtruder,0
;   supportInfillPercentage,25
;   supportExtraInflation,1
;   supportBaseLayers,1
;   denseSupportExtruder,0
;   denseSupportLayers,0
;   denseSupportInfillPercentage,10
;   supportLayerInterval,1
;   supportHorizontalPartOffset,0.3
;   supportUpperSeparationLayers,1
;   supportLowerSeparationLayers,1
;   supportType,0
;   supportGridSpacing,4
;   maxOverhangAngle,45
;   supportAngles,0
;   temperatureName,Extruder 1 Temperature,Heated Bed
;   temperatureNumber,0,0
;   temperatureSetpointCount,1,4
;   temperatureSetpointLayers,1,1,2,3,4
;   temperatureSetpointTemperatures,208,80,40,30,20
;   temperatureStabilizeAtStartup,1,1
;   temperatureHeatedBed,0,1
;   temperatureRelayBetweenLayers,0,0
;   temperatureRelayBetweenLoops,0,0
;   fanLayers,1,2
;   fanSpeeds,0,100
;   blipFanToFullPower,0
;   adjustSpeedForCooling,0
;   minSpeedLayerTime,15
;   minCoolingSpeedSlowdown,20
;   increaseFanForCooling,0
;   minFanLayerTime,45
;   maxCoolingFanSpeed,100
;   increaseFanForBridging,0
;   bridgingFanSpeed,100
;   use5D,1
;   relativeEdistances,0
;   allowEaxisZeroing,1
;   independentExtruderAxes,0
;   includeM10123,0
;   stickySupport,1
;   applyToolheadOffsets,0
;   gcodeXoffset,0
;   gcodeYoffset,0
;   gcodeZoffset,0
;   overrideMachineDefinition,1
;   machineTypeOverride,0
;   strokeXoverride,200
;   strokeYoverride,200
;   strokeZoverride,400
;   originOffsetXoverride,0
;   originOffsetYoverride,0
;   originOffsetZoverride,0
;   homeXdirOverride,-1
;   homeYdirOverride,-1
;   homeZdirOverride,-1
;   flipXoverride,1
;   flipYoverride,-1
;   flipZoverride,1
;   toolheadOffsets,0,0|0,0|0,0|0,0|0,0|0,0
;   overrideFirmwareConfiguration,1
;   firmwareTypeOverride,RepRap (Marlin/Repetier/Sprinter)
;   GPXconfigOverride,r2
;   baudRateOverride,115200
;   overridePrinterModels,0
;   printerModelsOverride
;   startingGcode,;Sliced at: {day} {date} {time},;Basic settings: Layer height: {layer_height} Walls: {wall_thickness} Fill: {fill_density},;Print time: {print_time},;Filament used: {filament_amount}m {filament_weight}g,;Filament cost: {filament_cost},;M190 S{print_bed_temperature} ;Uncomment to add your own bed temperature line,;M104 S{print_temperature} ;Uncomment to add your own temperature line,;M109 T1 S{print_temperature2} ;Uncomment to add your own temperature line,;M109 T0 S{print_temperature} ;Uncomment to add your own temperature line,G21        ;metric values,G90        ;absolute positioning,M82        ;set extruder to absolute mode,M107       ;start with the fan off,G28 X0 Y0  ;move X/Y to min endstops,G28 Z0     ;move Z to min endstops,G1 Z15.0 F{travel_speed} ;move the platform down 15mm,G92 E0                  ;zero the extruded length,G1 F200 E3              ;extrude 3mm of feed stock,G92 E0                  ;zero the extruded length again,G1 F{travel_speed},;Put printing message on LCD screen,M117 Printing...
;   layerChangeGcode,
;   retractionGcode,
;   toolChangeGcode,
;   endingGcode,;End GCode,M104 T0 S0                     ;extruder heater off,M104 T1 S0                     ;extruder heater off,M140 S0                     ;heated bed heater off (if you have it),G91                                    ;relative positioning,G1 E0 F300                            ;retract the filament a bit before lifting the nozzle, to release some of the pressure,G1 Z+0.5 E0 X-20 Y-20 F{travel_speed} ;move Z up a bit and retract filament even more,G28 X0 Y0                              ;move X/Y to min endstops, so the head is out of the way,M84                         ;steppers off,G90                         ;absolute positioning,;{profile_string}
;   exportFileFormat,gcode
;   celebration,0
;   celebrationSong,Random Song
;   postProcessing,
;   defaultSpeed,3200
;   outlineUnderspeed,0.6
;   solidInfillUnderspeed,0.7
;   supportUnderspeed,0.8
;   rapidXYspeed,4800
;   rapidZspeed,1000
;   minBridgingArea,50
;   bridgingExtraInflation,0
;   bridgingExtrusionMultiplier,1
;   bridgingSpeedMultiplier,1
;   useFixedBridgingAngle,0
;   fixedBridgingAngle,0
;   applyBridgingToPerimeters,0
;   filamentDiameters,1.75|1.75|1.75|1.75|1.75|1.75
;   filamentPricesPerKg,46|46|46|46|46|46
;   filamentDensities,1.25|1.25|1.25|1.25|1.25|1.25
;   useMinPrintHeight,0
;   minPrintHeight,0
;   useMaxPrintHeight,0
;   maxPrintHeight,0
;   useDiaphragm,0
;   diaphragmLayerInterval,20
;   robustSlicing,1
;   mergeAllIntoSolid,0
;   onlyRetractWhenCrossingOutline,1
;   retractBetweenLayers,1
;   useRetractionMinTravel,0
;   retractionMinTravel,3
;   retractWhileWiping,0
;   onlyWipeOutlines,1
;   avoidCrossingOutline,0
;   maxMovementDetourFactor,3
;   toolChangeRetractionDistance,12
;   toolChangeExtraRestartDistance,-0.5
;   toolChangeRetractionSpeed,600
;   externalThinWallType,0
;   internalThinWallType,2
;   thinWallAllowedOverlapPercentage,10
;   singleExtrusionMinLength,1
;   singleExtrusionMinPrintingWidthPercentage,50
;   singleExtrusionMaxPrintingWidthPercentage,200
;   singleExtrusionEndpointExtension,0.2
;   horizontalSizeCompensation,0
G90
M82
M106 S0
M140 S80
M190 S80
M104 S208 T0
M109 S208 T0
;Sliced at: {day} {date} {time}
;Basic settings: Layer height: {layer_height} Walls: {wall_thickness} Fill: {fill_density}
;Print time: {print_time}
;Filament used: {filament_amount}m {filament_weight}g
;Filament cost: {filament_cost}
;M190 S{print_bed_temperature} ;Uncomment to add your own bed temperature line
;M104 S{print_temperature} ;Uncomment to add your own temperature line
;M109 T1 S{print_temperature2} ;Uncomment to add your own temperature line
;M109 T0 S{print_temperature} ;Uncomment to add your own temperature line
G21        ;metric values
G90        ;absolute positioning
M82        ;set extruder to absolute mode
M107       ;start with the fan off
G28 X0 Y0  ;move X/Y to min endstops
G28 Z0     ;move Z to min endstops
G1 Z15.0 F{travel_speed} ;move the platform down 15mm
G92 E0                  ;zero the extruded length
G1 F200 E3              ;extrude 3mm of feed stock
G92 E0                  ;zero the extruded length again
G1 F{travel_speed}
;Put printing message on LCD screen
M117 Printing...
G92 E0
G1 E-1.0000 F4200
G1 Z0.360 F1000
; process Process1
; layer 1, Z = 0.360
T0
; tool H0.360 W0.440
; skirt
G1 X63.456 Y57.684 F4800
G1 E0.0000 F1260
G92 E0
G1 X66.184 Y54.956 E0.2540 F1920
G1 X66.210 Y54.931 E0.2564
G1 X66.393 Y54.766 E0.2726
G1 X66.421 Y54.742 E0.2751
G1 X69.419 Y52.315 E0.5291
G1 X69.448 Y52.293 E0.5315
G1 X69.647 Y52.148 E0.5477
G1 X69.677 Y52.127 E0.5501
G1 X72.912 Y50.026 E0.8041
G1 X72.943 Y50.007 E0.8066
G1 X73.157 Y49.884 E0.8228
G1 X73.189 Y49.867 E0.8252
G1 X76.626 Y48.115 E1.0792
G1 X76.659 Y48.100 E1.0816
G1 X76.884 Y47.999 E1.0978
G1 X76.917 Y47.985 E1.1002
G1 X80.519 Y46.603 E1.3543
G1 X80.553 Y46.591 E1.3567
G1 X80.787 Y46.515 E1.3729
G1 X80.822 Y46.504 E1.3753
G1 X84.548 Y45.506 E1.6293
G1 X84.584 Y45.498 E1.6317
G1 X84.825 Y45.446 E1.6480
G1 X84.861 Y45.440 E1.6504
G1 X88.671 Y44.836 E1.9044
G1 X88.707 Y44.831 E1.9068
G1 X88.952 Y44.806 E1.9230
G1 X88.988 Y44.803 E1.9254
G1 X92.840 Y44.601 E2.1795
G1 X92.877 Y44.600 E2.1819
G1 X93.123 Y44.600 E2.1981
G1 X93.160 Y44.601 E2.2005
G1 X97.012 Y44.803 E2.4545
G1 X97.048 Y44.806 E2.4569
G1 X97.293 Y44.831 E2.4731
G1 X97.329 Y44.836 E2.4756
G1 X101.139 Y45.440 E2.7296
G1 X101.175 Y45.446 E2.7320
G1 X101.416 Y45.498 E2.7482
G1 X101.452 Y45.506 E2.7506
G1 X105.178 Y46.504 E3.0046
G1 X105.213 Y46.515 E3.0071
G1 X105.447 Y46.591 E3.0233
G1 X105.481 Y46.603 E3.0257
G1 X109.082 Y47.985 E3.2797
G1 X109.116 Y47.999 E3.2821
G1 X109.341 Y48.100 E3.2983
G1 X109.374 Y48.115 E3.3007
G1 X112.811 Y49.867 E3.5548
G1 X112.843 Y49.884 E3.5572
G1 X113.057 Y50.007 E3.5734
G1 X113.088 Y50.026 E3.5758
G1 X116.323 Y52.127 E3.8298
G1 X116.353 Y52.148 E3.8322
G1 X116.552 Y52.293 E3.8484
G1 X116.581 Y52.315 E3.8509
G1 X119.579 Y54.742 E4.1049
G1 X119.607 Y54.766 E4.1073
G1 X119.790 Y54.931 E4.1235
G1 X119.816 Y54.956 E4.1259
G1 X122.544 Y57.684 E4.3799
G1 X122.569 Y57.710 E4.3824
G1 X122.734 Y57.893 E4.3986
G1 X122.758 Y57.921 E4.4010
G1 X125.185 Y60.919 E4.6550
G1 X125.207 Y60.948 E4.6574
G1 X125.352 Y61.147 E4.6736
G1 X125.373 Y61.177 E4.6760
G1 X127.474 Y64.412 E4.9301
G1 X127.493 Y64.443 E4.9325
G1 X127.616 Y64.657 E4.9487
G1 X127.633 Y64.689 E4.9511
G1 X129.385 Y68.126 E5.2051
G1 X129.400 Y68.159 E5.2075
G1 X129.501 Y68.384 E5.2238
G1 X129.515 Y68.417 E5.2262
G1 X130.897 Y72.019 E5.4802
G1 X130.909 Y72.053 E5.4826
G1 X130.985 Y72.287 E5.4988
G1 X130.996 Y72.322 E5.5012
G1 X131.994 Y76.048 E5.7553
G1 X132.002 Y76.084 E5.7577
G1 X132.054 Y76.325 E5.7739
G1 X132.060 Y76.361 E5.7763
G1 X132.664 Y80.171 E6.0303
G1 X132.669 Y80.207 E6.0327
G1 X132.694 Y80.452 E6.0489
G1 X132.697 Y80.488 E6.0514
G1 X132.899 Y84.340 E6.3054
G1 X132.900 Y84.377 E6.3078
G1 X132.900 Y84.623 E6.3240
G1 X132.899 Y84.660 E6.3264
G1 X132.697 Y88.512 E6.5804
G1 X132.694 Y88.548 E6.5829
G1 X132.669 Y88.793 E6.5991
G1 X132.664 Y88.829 E6.6015
G1 X132.060 Y92.639 E6.8555
G1 X132.054 Y92.675 E6.8579
G1 X132.002 Y92.916 E6.8741
G1 X131.994 Y92.952 E6.8765
G1 X130.996 Y96.678 E7.1306
G1 X130.985 Y96.713 E7.1330
G1 X130.909 Y96.947 E7.1492
G1 X130.897 Y96.981 E7.1516
G1 X129.515 Y100.582 E7.4056
G1 X129.501 Y100.616 E7.4080
G1 X129.400 Y100.841 E7.4242
G1 X129.385 Y100.874 E7.4267
G1 X127.633 Y104.311 E7.6807
G1 X127.616 Y104.343 E7.6831
G1 X127.493 Y104.557 E7.6993
G1 X127.474 Y104.588 E7.7017
G1 X125.373 Y107.823 E7.9557
G1 X125.352 Y107.853 E7.9582
G1 X125.207 Y108.052 E7.9744
G1 X125.185 Y108.081 E7.9768
G1 X122.758 Y111.079 E8.2308
G1 X122.734 Y111.107 E8.2332
G1 X122.569 Y111.290 E8.2494
G1 X122.544 Y111.316 E8.2518
G1 X119.816 Y114.044 E8.5059
G1 X119.790 Y114.069 E8.5083
G1 X119.607 Y114.234 E8.5245
G1 X119.579 Y114.258 E8.5269
G1 X116.581 Y116.685 E8.7809
G1 X116.552 Y116.707 E8.7833
G1 X116.353 Y116.852 E8.7996
G1 X116.323 Y116.873 E8.8020
G1 X113.088 Y118.974 E9.0560
G1 X113.057 Y118.993 E9.0584
G1 X112.843 Y119.116 E9.0746
G1 X112.811 Y119.133 E9.0770
G1 X109.374 Y120.885 E9.3311
G1 X109.341 Y120.900 E9.3335
G1 X109.116 Y121.001 E9.3497
G1 X109.082 Y121.015 E9.3521
G1 X105.481 Y122.397 E9.6061
G1 X105.447 Y122.409 E9.6085
G1 X105.213 Y122.485 E9.6247
G1 X105.178 Y122.496 E9.6272
G1 X101.452 Y123.494 E9.8812
G1 X101.416 Y123.502 E9.8836
G1 X101.175 Y123.554 E9.8998
G1 X101.139 Y123.560 E9.9022
G1 X97.329 Y124.164 E10.1562
G1 X97.293 Y124.169 E10.1587
G1 X97.048 Y124.194 E10.1749
G1 X97.012 Y124.197 E10.1773
G1 X93.160 Y124.399 E10.4313
G1 X93.123 Y124.400 E10.4337
G1 X92.877 Y124.400 E10.4499
G1 X92.840 Y124.399 E10.4523
G1 X88.988 Y124.197 E10.7064
G1 X88.952 Y124.194 E10.7088
G1 X88.707 Y124.169 E10.7250
G1 X88.671 Y124.164 E10.7274
G1 X84.861 Y123.560 E10.9814
G1 X84.825 Y123.554 E10.9838
G1 X84.584 Y123.502 E11.0001
G1 X84.548 Y123.494 E11.0025
G1 X80.822 Y122.496 E11.2565
G1 X80.787 Y122.485 E11.2589
G1 X80.553 Y122.409 E11.2751
G1 X80.519 Y122.397 E11.2775
G1 X76.917 Y121.015 E11.5315
G1 X76.884 Y121.001 E11.5340
G1 X76.659 Y120.900 E11.5502
G1 X76.626 Y120.885 E11.5526
G1 X73.189 Y119.133 E11.8066
G1 X73.157 Y119.116 E11.8090
G1 X72.943 Y118.993 E11.8252
G1 X72.912 Y118.974 E11.8276
G1 X69.677 Y116.873 E12.0817
G1 X69.647 Y116.852 E12.0841
G1 X69.448 Y116.707 E12.1003
G1 X69.419 Y116.685 E12.1027
G1 X66.421 Y114.258 E12.3567
G1 X66.393 Y114.234 E12.3591
G1 X66.210 Y114.069 E12.3754
G1 X66.184 Y114.044 E12.3778
G1 X63.456 Y111.316 E12.6318
G1 X63.431 Y111.290 E12.6342
G1 X63.266 Y111.107 E12.6504
G1 X63.242 Y111.079 E12.6528
G1 X60.815 Y108.081 E12.9069
G1 X60.793 Y108.052 E12.9093
G1 X60.648 Y107.853 E12.9255
G1 X60.627 Y107.823 E12.9279
G1 X58.526 Y104.588 E13.1819
G1 X58.507 Y104.557 E13.1843
G1 X58.384 Y104.343 E13.2005
G1 X58.367 Y104.311 E13.2030
G1 X56.615 Y100.874 E13.4570
G1 X56.600 Y100.841 E13.4594
G1 X56.499 Y100.616 E13.4756
G1 X56.485 Y100.582 E13.4780
G1 X55.103 Y96.981 E13.7320
G1 X55.091 Y96.947 E13.7345
G1 X55.015 Y96.713 E13.7507
G1 X55.004 Y96.678 E13.7531
G1 X54.006 Y92.952 E14.0071
G1 X53.998 Y92.916 E14.0095
G1 X53.946 Y92.675 E14.0257
G1 X53.940 Y92.639 E14.0281
G1 X53.336 Y88.829 E14.2822
G1 X53.331 Y88.793 E14.2846
G1 X53.306 Y88.548 E14.3008
G1 X53.303 Y88.512 E14.3032
G1 X53.101 Y84.660 E14.5572
G1 X53.100 Y84.623 E14.5596
G1 X53.100 Y84.377 E14.5758
G1 X53.101 Y84.340 E14.5783
G1 X53.303 Y80.488 E14.8323
G1 X53.306 Y80.452 E14.8347
G1 X53.331 Y80.207 E14.8509
G1 X53.336 Y80.171 E14.8533
G1 X53.940 Y76.361 E15.1073
G1 X53.946 Y76.325 E15.1098
G1 X53.998 Y76.084 E15.1260
G1 X54.006 Y76.048 E15.1284
G1 X55.004 Y72.322 E15.3824
G1 X55.015 Y72.287 E15.3848
G1 X55.091 Y72.053 E15.4010
G1 X55.103 Y72.019 E15.4034
G1 X56.485 Y68.417 E15.6575
G1 X56.499 Y68.384 E15.6599
G1 X56.600 Y68.159 E15.6761
G1 X56.615 Y68.126 E15.6785
G1 X58.367 Y64.689 E15.9325
G1 X58.384 Y64.657 E15.9349
G1 X58.507 Y64.443 E15.9512
G1 X58.526 Y64.412 E15.9536
G1 X60.627 Y61.177 E16.2076
G1 X60.648 Y61.147 E16.2100
G1 X60.793 Y60.948 E16.2262
G1 X60.815 Y60.919 E16.2286
G1 X63.242 Y57.921 E16.4827
G1 X63.266 Y57.893 E16.4851
G1 X63.431 Y57.710 E16.5013
G1 X63.456 Y57.684 E16.5037
G1 X63.743 Y57.963 F4800
G92 E0
G1 X66.463 Y55.243 E0.2533 F1920
G1 X66.482 Y55.225 E0.2551
G1 X66.657 Y55.067 E0.2706
G1 X66.677 Y55.050 E0.2723
G1 X69.666 Y52.629 E0.5256
G1 X69.687 Y52.613 E0.5274
G1 X69.878 Y52.475 E0.5429
G1 X69.899 Y52.460 E0.5446
G1 X73.126 Y50.365 E0.7979
G1 X73.148 Y50.351 E0.7997
G1 X73.352 Y50.233 E0.8152
G1 X73.375 Y50.221 E0.8169
G1 X76.803 Y48.474 E1.0702
G1 X76.826 Y48.463 E1.0720
G1 X77.041 Y48.367 E1.0875
G1 X77.066 Y48.357 E1.0892
G1 X80.657 Y46.978 E1.3425
G1 X80.682 Y46.970 E1.3443
G1 X80.906 Y46.897 E1.3598
G1 X80.931 Y46.889 E1.3615
G1 X84.647 Y45.894 E1.6148
G1 X84.672 Y45.888 E1.6166
G1 X84.903 Y45.839 E1.6321
G1 X84.928 Y45.834 E1.6338
G1 X88.728 Y45.232 E1.8872
G1 X88.754 Y45.229 E1.8889
G1 X88.988 Y45.204 E1.9044
G1 X89.014 Y45.202 E1.9061
G1 X92.856 Y45.001 E2.1595
G1 X92.882 Y45.000 E2.1612
G1 X93.118 Y45.000 E2.1767
